X: 12
T: The Star Of Munster
R: reel
M: 4/4
L: 1/8
K: Bmin
|: d2 Bd cBAc | BAFG AFEA | FBBA Bcde |f2 bf af e2 |
d2 Bd cBAc | BAFG AFEA | FBBA Bcde |1 f2 ec B3c :|2 f2 ec B3a||
|:b3c' bafa | bac'a bafg | a3b afef |a2 bf afea |
b3c' bafa | bac'a bafg | a4 b4| c'3 b af e2 :||


Tune 197	Setting 27919

